X:260
T:Skimming the Surface
C:
N:Tabledited by Mike Stangeland
L:1/8
Q:1/4=155
M:4/4
K:G
z8 | B,D EF "Em"G2 FG | "D"B,D EF "Em"GF ED | "D"E3F "C"GA (3BAG | AG FG "Bm7"AF EF | 
B,D EF "Em"G2 FG | "D"B,D EF "Em"GF ED | "D"E3F "C"GA (3BAG | AG FD "Bm7"GE FD | 
"Em"E8 | 
M:2/4
"Em"z4 | 
M:4/4
"D"B,D EF "Em"G2 FG | "D"B,D EF "Em"GF ED | "D"E3F "C"GA (3BAG | AG FG "Bm7"AF EF | 
"D"B,D EF "Em"G2 FG | "D"B,D EF "Em"GF ED | "D"E3F "C"GA (3BAG | AG FD "Bm7"GE FD | 
"Em"E8 | 
M:2/4
"Em"z4 | 
M:4/4
DF GA "G"B2 AB | DG AB "Em"cB AB | G3F "C"EF GE | "Bm7"FG AB "Am"ed cB | "D"AD GA "G"B2 AB | 
DG AB "Em"cB AB | G3A "Bb"^A=A G_B | "C"cA =FA "G"G4 | z8 | DF GA "G"B2 AB | DG AB "Em"cB AB | 
G3F "C"EF GE | "Bm7"FG AB "C"ed cB | "D"AD GA "G"B2 AB | DG AB "Em"cB AB | G3A "Bb"^A=A G_B | 
"C"cA =FA "G"G4 | z8 | AG FD "Em"E4 | z8 | 
 

